media/bg/mask-01.svg

<?xml version="1.0" encoding="UTF-8"?>
<svg width="1440px" height="900px" viewBox="0 0 1440 900" version="1.1" xmlns="http://www.w3.org/2000/svg" xmlns:xlink="http://www.w3.org/1999/xlink">
    <!-- Generator: Sketch 46.2 (44496) - http://www.bohemiancoding.com/sketch -->
    <title>mask-one</title>
    <desc>Created with Sketch.</desc>
    <defs></defs>
    <g id="Page-1" stroke="none" stroke-width="1" fill="none" fill-rule="evenodd">
        <g id="mask-one" fill="#0D0F1D">
            <path d="M9.05941988e-14,597.928983 L60.2982702,614.942122 L20,900 L516,900 L606,297 L307.988818,255.119713 L3.55271368e-15,163.791798 L0,0 L1440,0 L1440,900 L0,900 L0,597.928983 Z M1253,900 L1440,900 L1440,346 L1290,141 L833,364 L879.45804,438.779307 L838,900 L1253,900 Z"></path>
        </g>
    </g>
</svg>

<svg width="1440" height="900" viewBox="0 0 1440 900" xmlns="http://www.w3.org/2000/svg"><title>mask-one</title><path d="M0 597.929l60.298 17.013L20 900h496l90-603-298.011-41.88L0 163.792V0h1440v900H0V597.929zM1253 900h187V346l-150-205-457 223 46.458 74.78L838 900h415z" fill="#0D0F1D" fill-rule="evenodd"/></svg>
